src/assets/actions/togglerecord/key_on.svg

<svg xmlns="http://www.w3.org/2000/svg" width="144" height="144" viewBox="0 0 144 144">
	<rect fill="#cc3636" fill-rule="nonzero" width="144" height="144" rx="22" />
	<path fill="#EFEFEF" fill-rule="evenodd"
		d="M72,104 C54.326888,104 40,89.673112 40,72 C40,54.326888 54.326888,40 72,40 C89.673112,40 104,54.326888 104,72 C104,89.673112 89.673112,104 72,104 Z M72,100 C87.463973,100 100,87.463973 100,72 C100,56.536027 87.463973,44 72,44 C56.536027,44 44,56.536027 44,72 C44,87.463973 56.536027,100 72,100 Z M72,92 C60.954305,92 52,83.045695 52,72 C52,60.954305 60.954305,52 72,52 C83.045695,52 92,60.954305 92,72 C92,83.045695 83.045695,92 72,92 Z">
	</path>
</svg>

<svg xmlns="http://www.w3.org/2000/svg" width="144" height="144"><rect fill="#cc3636" width="144" height="144" rx="22"/><path fill="#EFEFEF" fill-rule="evenodd" d="M72 104c-17.673 0-32-14.327-32-32 0-17.673 14.327-32 32-32 17.673 0 32 14.327 32 32 0 17.673-14.327 32-32 32zm0-4c15.464 0 28-12.536 28-28S87.464 44 72 44 44 56.536 44 72s12.536 28 28 28zm0-8c-11.046 0-20-8.954-20-20s8.954-20 20-20 20 8.954 20 20-8.954 20-20 20z"/></svg>
